other/apisnoop/icon/color/apisnoop-icon-color.svg

<?xml version="1.0" encoding="utf-8"?>
<!-- Generator: Adobe Illustrator 21.1.0, SVG Export Plug-In . SVG Version: 6.00 Build 0)  -->
<svg version="1.1" id="Layer_1" xmlns="http://www.w3.org/2000/svg" xmlns:xlink="http://www.w3.org/1999/xlink" x="0px" y="0px"
	 viewBox="0 0 360 360" style="enable-background:new 0 0 360 360;" xml:space="preserve">
<style type="text/css">
	.st0{fill:none;}
	.st1{fill:#ED0047;}
	.st2{fill:#4166CD;}
	.st3{fill:#00CB3D;}
</style>
<g>
	<path class="st0" d="M145.4137573,124.8463135c-11.734314,20.3269043-11.734314,45.3690186,0,65.6959839
		c11.7342529,20.3215332,33.4199219,32.8452759,56.8885498,32.8452759c36.2822876,0,65.6959229-29.4135742,65.6959229-65.6959839
		c0-36.2822266-29.4136353-65.6905518-65.6959229-65.6905518
		C178.8336792,92.0010376,157.1480103,104.5193481,145.4137573,124.8463135z"/>
	<path d="M202.3024902,6.6224937c-83.2987061,0-151.0683594,67.7697144-151.0683594,151.0684204
		c0,28.9119873,8.1692505,55.9493408,22.3116417,78.9360352l-65.345459,65.345459
		c-3.4370728,3.4371338-3.4370728,9.0223999,0,12.4593506l37.3671265,37.3672485
		c3.4370728,3.4369507,9.0169067,3.4369507,12.4539795,0l65.3475342-65.3442383
		c22.9857178,14.1445312,50.0222168,22.3150635,78.9335327,22.3150635c83.2987671,0,151.0736694-67.7749634,151.0736694-151.0789185
		C353.3761597,74.3922119,285.6012573,6.6224937,202.3024902,6.6224937z M202.3023071,267.1830444
		c-39.1126099,0-75.2606201-20.8692017-94.8196411-54.7457275c-19.55896-33.8762817-19.55896-75.6149902,0-109.486084
		c19.559021-33.8764648,55.7070312-54.7457314,94.8196411-54.7457314c60.47052,0,109.4915161,49.0208778,109.4915161,109.486084
		C311.7938232,218.1622314,262.7728271,267.1830444,202.3023071,267.1830444z"/>
	<path class="st1" d="M202.3023071,92.0010376v-43.795536c-39.1126099,0-75.2606201,20.8692665-94.8196411,54.7457314
		l37.9310913,21.8950806C157.1480103,104.5193481,178.8336792,92.0010376,202.3023071,92.0010376z"/>
	<path class="st2" d="M145.4137573,190.5422974c-11.734314-20.3269653-11.734314-45.3690796,0-65.6959839l-37.9310913-21.8950806
		c-19.55896,33.8710938-19.55896,75.6098022,0,109.486084c19.559021,33.8765259,55.7070312,54.7457275,94.8196411,54.7457275
		v-43.7954712C178.8336792,223.3875732,157.1480103,210.8638306,145.4137573,190.5422974z"/>
	<path class="st3" d="M202.3023071,48.2055016v43.795536c36.2822876,0,65.6959229,29.4083252,65.6959229,65.6905518
		c0,36.2824097-29.4136353,65.6959839-65.6959229,65.6959839v43.7954712c60.47052,0,109.4915161-49.020813,109.4915161-109.4914551
		C311.7938232,97.2263794,262.7728271,48.2055016,202.3023071,48.2055016z"/>
</g>
</svg>

<svg xmlns="http://www.w3.org/2000/svg" role="img" viewBox="-1.45 -0.45 361.66 361.66"><style>svg {enable-background:new 0 0 360 360}</style><path fill="none" d="M145.414 124.846a65.696 65.696 0 0 0 56.889 98.541c36.282 0 65.695-29.413 65.695-65.695 0-36.283-29.413-65.691-65.696-65.691a65.684 65.684 0 0 0-56.888 32.845z"/><path d="M202.302 6.622c-83.298 0-151.068 67.77-151.068 151.069 0 28.912 8.17 55.95 22.312 78.936L8.2 301.972c-3.437 3.438-3.437 9.023 0 12.46l37.367 37.367c3.438 3.437 9.017 3.437 12.454 0l65.348-65.344c22.986 14.144 50.022 22.315 78.933 22.315 83.3 0 151.074-67.775 151.074-151.08 0-83.298-67.775-151.068-151.074-151.068zm0 260.561c-39.112 0-75.26-20.87-94.82-54.746-19.558-33.876-19.558-75.615 0-109.486 19.56-33.876 55.708-54.745 94.82-54.745 60.47 0 109.492 49.02 109.492 109.486 0 60.47-49.021 109.491-109.492 109.491z"/><path fill="#ed0047" d="M202.302 92.001V48.206c-39.112 0-75.26 20.869-94.82 54.745l37.932 21.895a65.684 65.684 0 0 1 56.888-32.845z"/><path fill="#4166cd" d="M145.414 190.542a65.702 65.702 0 0 1 0-65.696l-37.931-21.895c-19.56 33.871-19.56 75.61 0 109.486 19.559 33.877 55.707 54.746 94.82 54.746v-43.795a65.696 65.696 0 0 1-56.89-32.846z"/><path fill="#00cb3d" d="M202.302 48.206V92c36.283 0 65.696 29.408 65.696 65.69 0 36.283-29.413 65.697-65.696 65.697v43.795c60.47 0 109.492-49.02 109.492-109.491 0-60.466-49.021-109.486-109.492-109.486z"/></svg>
